fill/svg/inbox.svg

<svg xmlns="http://www.w3.org/2000/svg" viewBox="0 0 24 24"><g data-name="Layer 2"><g data-name="inbox"><rect width="24" height="24" transform="rotate(180 12 12)" opacity="0"/><path d="M20.79 11.34l-3.34-6.68A3 3 0 0 0 14.76 3H9.24a3 3 0 0 0-2.69 1.66l-3.34 6.68a2 2 0 0 0-.21.9V18a3 3 0 0 0 3 3h12a3 3 0 0 0 3-3v-5.76a2 2 0 0 0-.21-.9zM8.34 5.55a1 1 0 0 1 .9-.55h5.52a1 1 0 0 1 .9.55L18.38 11H16a1 1 0 0 0-1 1v2a1 1 0 0 1-1 1h-4a1 1 0 0 1-1-1v-2a1 1 0 0 0-1-1H5.62z"/></g></g></svg>

<svg xmlns="http://www.w3.org/2000/svg" viewBox="0 0 24 24"><defs><style>.cls-1{fill:#fff;opacity:0;}.cls-2{fill:#231f20;}</style></defs><title>inbox</title><g id="Layer_2" data-name="Layer 2"><g id="inbox"><g id="inbox-2" data-name="inbox"><rect class="cls-1" width="24" height="24" transform="translate(24 24) rotate(180)"/><path class="cls-2" d="M20.79,11.34,17.45,4.66A3,3,0,0,0,14.76,3H9.24A3,3,0,0,0,6.55,4.66L3.21,11.34a2,2,0,0,0-.21.9V18a3,3,0,0,0,3,3H18a3,3,0,0,0,3-3V12.24A2,2,0,0,0,20.79,11.34ZM8.34,5.55A1,1,0,0,1,9.24,5h5.52a1,1,0,0,1,.9.55L18.38,11H16a1,1,0,0,0-1,1v2a1,1,0,0,1-1,1H10a1,1,0,0,1-1-1V12a1,1,0,0,0-1-1H5.62Z"/></g></g></g></svg>
